assets/sonr-icons/tag.svg

<svg xmlns="http://www.w3.org/2000/svg" width="24" height="24" fill="none" viewBox="0 0 24 24"><path stroke="#000" stroke-linecap="square" stroke-width="2" d="M7.4 7.5H7.6M3 5V11.1716C3 11.702 3.21071 12.2107 3.58579 12.5858L11.3358 20.3358C12.1168 21.1168 13.3832 21.1168 14.1642 20.3358L20.3358 14.1642C21.1168 13.3832 21.1168 12.1168 20.3358 11.3358L12.5858 3.58579C12.2107 3.21071 11.702 3 11.1716 3H5C3.89543 3 3 3.89543 3 5ZM8 7.5C8 7.77614 7.77614 8 7.5 8C7.22386 8 7 7.77614 7 7.5C7 7.22386 7.22386 7 7.5 7C7.77614 7 8 7.22386 8 7.5Z"/></svg>

<svg xmlns="http://www.w3.org/2000/svg" width="24" height="24" fill="none"><path stroke="#000" stroke-linecap="square" stroke-width="2" d="M7.4 7.5h.2M3 5v6.172a2 2 0 0 0 .586 1.414l7.75 7.75a2 2 0 0 0 2.828 0l6.172-6.172a2 2 0 0 0 0-2.828l-7.75-7.75A2 2 0 0 0 11.172 3H5a2 2 0 0 0-2 2Zm5 2.5a.5.5 0 1 1-1 0 .5.5 0 0 1 1 0Z"/></svg>
